;FLAVOR:Marlin
;TIME:9136
;Filament used: 4.33194m
;Layer height: 0.2
;MINX:94.622
;MINY:94.826
;MINZ:0.2
;MAXX:125.378
;MAXY:125.274
;MAXZ:157.8
;Generated with Cura_SteamEngine 5.4.0
M82 ;absolute extrusion mode
; Ender 3 Custom Start G-code
G92 E0 ; Reset Extruder
G28 ; Home all axes
G29 ; CR Touch ABL
M104 S175 ; Start heating up the nozzle most of the way
M190 S60 ; Start heating the bed, wait until target temperature reached
M109 S200 ; Finish heating the nozzle
G1 Z2.0 F3000 ; Move Z Axis up little to prevent scratching of Heat Bed
G1 X0.1 Y20 Z0.3 F5000.0 ; Move to start position
G1 X0.1 Y200.0 Z0.3 F1500.0 E15 ; Draw the first line
G1 X0.4 Y200.0 Z0.3 F5000.0 ; Move to side a little
G1 X0.4 Y20 Z0.3 F1500.0 E30 ; Draw the second line
G92 E0 ; Reset Extruder
G1 Z2.0 F3000 ; Move Z Axis up little to prevent scratching of Heat Bed
G1 X5 Y20 Z0.3 F5000.0 ; Move over to prevent blob squish
G92 E0
G92 E0
G1 F1500 E-6.5
;LAYER_COUNT:789
;LAYER:0
M107
G0 F6000 X99.959 Y98.397 Z0.2
;TYPE:SKIRT
G1 F1500 E0
G1 F1200 X103.611 Y96.052 E0.14435
G1 X107.784 Y94.826 E0.28901
G1 X112.218 Y94.826 E0.43649
G1 X116.357 Y96.045 E0.58
G1 X120.069 Y98.434 E0.72682
G1 X122.954 Y101.76 E0.87326
G1 X124.756 Y105.692 E1.01712
G1 X125.378 Y110.051 E1.16357
G1 X124.756 Y114.41 E1.31002
G1 X122.954 Y118.341 E1.45384
G1 X120.041 Y121.703 E1.6018
G1 X116.389 Y124.048 E1.74615
G1 X112.216 Y125.274 E1.89081
G1 X107.782 Y125.274 E2.03829
G1 X103.643 Y124.055 E2.1818
G1 X99.931 Y121.666 E2.32862
G1 X97.047 Y118.341 E2.47501
G1 X95.243 Y114.405 E2.61902
G1 X94.622 Y110.05 E2.76533
G1 X95.244 Y105.688 E2.91188
G1 X97.045 Y101.76 E3.05561
G1 X99.959 Y98.397 E3.20361
G0 F6000 X100.222 Y98.704
G1 F1200 X103.779 Y96.42 E3.3442
G1 X107.843 Y95.226 E3.48509
G1 X112.159 Y95.226 E3.62864
G1 X116.19 Y96.413 E3.7684
G1 X119.805 Y98.74 E3.91139
G1 X122.613 Y101.977 E4.05392
G1 X124.369 Y105.808 E4.19409
G1 X124.974 Y110.051 E4.33664
G1 X124.369 Y114.294 E4.47919
G1 X122.613 Y118.124 E4.61932
G1 X119.778 Y121.396 E4.76332
G1 X116.221 Y123.68 E4.90391
G1 X112.157 Y124.874 E5.0448
G1 X107.841 Y124.874 E5.18835
G1 X103.81 Y123.687 E5.32811
G1 X100.195 Y121.36 E5.4711
G1 X97.388 Y118.124 E5.61358
G1 X95.631 Y114.29 E5.75385
G1 X95.026 Y110.05 E5.89631
G1 X95.632 Y105.803 E6.03899
G1 X97.386 Y101.977 E6.17898
G1 X100.222 Y98.704 E6.32302
G0 F6000 X100.485 Y99.011
G1 F1200 X103.947 Y96.788 E6.45986
G1 X107.902 Y95.626 E6.59697
G1 X112.1 Y95.626 E6.73659
G1 X116.023 Y96.781 E6.87261
G1 X119.541 Y99.046 E7.01177
G1 X122.272 Y102.194 E7.15039
G1 X123.981 Y105.923 E7.28682
G1 X124.57 Y110.051 E7.42551
G1 X123.981 Y114.179 E7.56419
G1 X122.272 Y117.907 E7.7006
G1 X119.515 Y121.089 E7.84063
G1 X116.053 Y123.312 E7.97747
G1 X112.098 Y124.474 E8.11457
G1 X107.9 Y124.474 E8.2542
G1 X103.977 Y123.319 E8.39022
G1 X100.459 Y121.054 E8.52938
G1 X97.729 Y117.907 E8.66795
G1 X96.019 Y114.175 E8.80448
G1 X95.43 Y110.05 E8.94307
G1 X96.02 Y105.918 E9.0819
G1 X97.727 Y102.194 E9.21815
G1 X100.485 Y99.011 E9.35823
G0 F6000 X100.748 Y99.318
G1 F1200 X104.115 Y97.156 E9.49132
G1 X107.961 Y96.026 E9.62464
G1 X112.041 Y96.026 E9.76034
G1 X115.858 Y97.15 E9.89269
G1 X119.276 Y99.35 E10.02788
G1 X121.931 Y102.411 E10.16265
G1 X123.593 Y106.038 E10.29535
G1 X124.166 Y110.051 E10.43018
G1 X123.593 Y114.064 E10.565
G1 X121.931 Y117.69 E10.69767
G1 X119.252 Y120.782 E10.83374
G1 X115.885 Y122.944 E10.96683
G1 X112.039 Y124.074 E11.10015
G1 X107.959 Y124.074 E11.23585
G1 X104.142 Y122.95 E11.3682
G1 X100.724 Y120.75 E11.5034
G1 X98.07 Y117.69 E11.63812
G1 X96.406 Y114.059 E11.77096
G1 X95.834 Y110.05 E11.90565
G1 X96.407 Y106.034 E12.04058
G1 X98.068 Y102.411 E12.17314
G1 X100.748 Y99.318 E12.30926
G0 F6000 X101.011 Y99.625
G1 F1200 X104.283 Y97.524 E12.43859
G1 X108.02 Y96.426 E12.56814
G1 X111.982 Y96.426 E12.69991
G1 X115.691 Y97.518 E12.82851
G1 X119.012 Y99.656 E12.95988
G1 X121.59 Y102.628 E13.09074
G1 X123.206 Y106.154 E13.21974
G1 X123.762 Y110.051 E13.35067
G1 X123.206 Y113.948 E13.4816
G1 X121.59 Y117.473 E13.61057
G1 X118.989 Y120.475 E13.74268
G1 X115.717 Y122.576 E13.87201
G1 X111.98 Y123.674 E14.00156
G1 X108.018 Y123.674 E14.13334
G1 X104.309 Y122.582 E14.26193
G1 X100.988 Y120.444 E14.3933
G1 X98.411 Y117.473 E14.52411
G1 X96.794 Y113.944 E14.65322
G1 X96.238 Y110.05 E14.78405
G1 X96.795 Y106.149 E14.91511
G1 X98.409 Y102.628 E15.04394
G1 X101.011 Y99.625 E15.1761
G0 F6000 X101.274 Y99.932
G1 F1200 X104.451 Y97.892 E15.30167
G1 X108.079 Y96.826 E15.42744
G1 X111.923 Y96.826 E15.55529
G1 X115.526 Y97.887 E15.68022
G1 X118.747 Y99.96 E15.80762
G1 X121.249 Y102.845 E15.93463
G1 X122.818 Y106.269 E16.0599
G1 X123.358 Y110.051 E16.18697
G1 X122.818 Y113.833 E16.31403
G1 X121.249 Y117.256 E16.43927
G1 X118.726 Y120.168 E16.56742
G1 X115.549 Y122.208 E16.693
G1 X111.921 Y123.274 E16.81877
G1 X108.077 Y123.274 E16.94662
G1 X104.474 Y122.213 E17.07154
G1 X101.253 Y120.14 E17.19894
G1 X98.752 Y117.256 E17.32591
G1 X97.181 Y113.828 E17.45133
G1 X96.642 Y110.05 E17.57826
G1 X97.182 Y106.265 E17.70542
G1 X98.75 Y102.845 E17.83056
G1 X101.274 Y99.932 E17.95875
G0 F6000 X101.537 Y100.239
G1 F1200 X104.619 Y98.26 E18.08058
G1 X108.138 Y97.226 E18.20257
G1 X111.864 Y97.226 E18.32649
G1 X115.359 Y98.255 E18.44767
G1 X118.483 Y100.266 E18.57124
G1 X120.908 Y103.062 E18.69434
G1 X122.431 Y106.385 E18.81592
G1 X122.954 Y110.051 E18.93909
G1 X122.431 Y113.717 E19.06225
G1 X120.908 Y117.039 E19.1838
G1 X118.463 Y119.861 E19.30799
G1 X115.381 Y121.84 E19.42981
G1 X111.862 Y122.874 E19.5518
G1 X108.136 Y122.874 E19.67573
G1 X104.641 Y121.845 E19.79691
G1 X101.517 Y119.834 E19.92048
G1 X99.093 Y117.039 E20.04353
G1 X97.569 Y113.713 E20.16521
G1 X97.046 Y110.05 E20.28828
G1 X97.57 Y106.38 E20.41158
G1 X99.091 Y103.062 E20.53298
G1 X101.537 Y100.239 E20.65722
G0 F6000 X101.8 Y100.546
G1 F1200 X104.787 Y98.628 E20.77529
G1 X108.197 Y97.626 E20.8935
G1 X111.805 Y97.626 E21.0135
G1 X115.192 Y98.623 E21.13093
G1 X118.219 Y100.572 E21.25067
G1 X120.567 Y103.279 E21.36986
G1 X122.043 Y106.5 E21.4877
G1 X122.55 Y110.051 E21.60701
G1 X122.043 Y113.602 E21.72631
G1 X120.567 Y116.822 E21.84413
G1 X118.2 Y119.554 E21.96435
G1 X115.213 Y121.472 E22.08242
G1 X111.803 Y122.474 E22.20063
G1 X108.195 Y122.474 E22.32063
G1 X104.808 Y121.477 E22.43806
G1 X101.781 Y119.528 E22.55781
G1 X99.434 Y116.822 E22.67695
G1 X97.956 Y113.597 E22.79494
G1 X97.45 Y110.05 E22.91411
G1 X97.957 Y106.496 E23.03351
G1 X99.432 Y103.279 E23.15122
G1 X101.8 Y100.546 E23.27149
G0 F6000 X102.063 Y100.853
G1 F1200 X104.955 Y98.996 E23.3858
G1 X108.256 Y98.026 E23.50024
G1 X111.746 Y98.026 E23.61631
G1 X115.027 Y98.992 E23.73007
G1 X117.954 Y100.876 E23.84585
G1 X120.226 Y103.496 E23.96119
G1 X121.656 Y106.616 E24.07534
G1 X122.146 Y110.051 E24.19075
G1 X121.656 Y113.486 E24.30615
G1 X120.226 Y116.605 E24.42028
G1 X117.937 Y119.247 E24.53654
G1 X115.045 Y121.104 E24.65085
G1 X111.744 Y122.074 E24.76529
G1 X108.254 Y122.074 E24.88136
G1 X104.973 Y121.108 E24.99512
G1 X102.046 Y119.224 E25.1109
G1 X99.775 Y116.605 E25.22619
G1 X98.344 Y113.482 E25.34045
G1 X97.854 Y110.05 E25.45576
G1 X98.345 Y106.611 E25.5713
G1 X99.773 Y103.496 E25.68527
G1 X102.063 Y100.853 E25.80158
G0 F6000 X102.326 Y101.16
G1 F1200 X105.123 Y99.364 E25.91214
G1 X108.315 Y98.426 E26.0228
G1 X111.687 Y98.426 E26.13495
G1 X114.86 Y99.36 E26.24496
G1 X117.69 Y101.182 E26.35691
G1 X119.885 Y103.713 E26.46834
G1 X121.268 Y106.731 E26.57875
G1 X121.742 Y110.051 E26.6903
G1 X121.268 Y113.371 E26.80184
G1 X119.885 Y116.388 E26.91223
G1 X117.674 Y118.94 E27.02453
G1 X114.877 Y120.736 E27.13509
G1 X111.685 Y121.674 E27.24574
G1 X108.313 Y121.674 E27.3579
G1 X105.14 Y120.74 E27.46791
G1 X102.31 Y118.918 E27.57985
G1 X100.116 Y116.388 E27.69124
G1 X98.731 Y113.366 E27.8018
G1 X98.258 Y110.05 E27.91321
G1 X98.732 Y106.727 E28.02485
G1 X100.114 Y103.713 E28.13513
G1 X102.326 Y101.16 E28.24749
G0 F6000 X102.589 Y101.467
G1 F1200 X105.291 Y99.732 E28.35429
G1 X108.374 Y98.826 E28.46116
G1 X111.628 Y98.826 E28.56939
G1 X114.695 Y99.729 E28.67573
G1 X117.425 Y101.486 E28.78371
G1 X119.544 Y103.93 E28.8913
G1 X120.881 Y106.847 E28.99802
G1 X121.338 Y110.051 E29.10567
G1 X120.881 Y113.255 E29.21331
G1 X119.544 Y116.171 E29.32001
G1 X117.411 Y118.633 E29.42835
G1 X114.709 Y120.368 E29.53515
G1 X111.626 Y121.274 E29.64203
G1 X108.372 Y121.274 E29.75026
G1 X105.305 Y120.371 E29.85659
G1 X102.575 Y118.614 E29.96457
G1 X100.457 Y116.171 E30.07211
G1 X99.119 Y113.251 E30.17894
G1 X98.662 Y110.05 E30.28649
G1 X99.12 Y106.842 E30.39427
G1 X100.455 Y103.93 E30.50082
G1 X102.589 Y101.467 E30.60921
G0 F6000 X102.852 Y101.774
G1 F1200 X105.459 Y100.1 E30.71225
G1 X108.433 Y99.226 E30.81535
G1 X111.569 Y99.226 E30.91965
G1 X114.528 Y100.097 E31.02225
G1 X117.161 Y101.792 E31.1264
G1 X119.203 Y104.147 E31.23007
G1 X120.493 Y106.962 E31.33306
G1 X120.934 Y110.051 E31.43684
G1 X120.493 Y113.14 E31.54062
G1 X119.203 Y115.954 E31.64358
G1 X117.148 Y118.326 E31.74797
G1 X114.541 Y120 E31.85101
G1 X111.567 Y120.874 E31.95411
G1 X108.431 Y120.874 E32.05842
G1 X105.472 Y120.003 E32.16101
G1 X102.839 Y118.308 E32.26516
G1 X100.798 Y115.954 E32.36878
G1 X99.507 Y113.136 E32.47188
G1 X99.066 Y110.049 E32.5756
G1 X99.507 Y106.958 E32.67944
G1 X100.796 Y104.147 E32.7823
G1 X102.852 Y101.774 E32.88673
G0 F6000 X103.115 Y102.081
G1 F1200 X105.627 Y100.468 E32.98602
G1 X108.492 Y99.626 E33.08534
G1 X111.51 Y99.626 E33.18572
G1 X114.361 Y100.465 E33.28456
G1 X116.897 Y102.098 E33.38489
G1 X118.862 Y104.364 E33.48464
G1 X120.105 Y107.077 E33.5839
G1 X120.53 Y110.051 E33.68382
G1 X120.105 Y113.025 E33.78374
G1 X118.862 Y115.737 E33.88296
G1 X116.885 Y118.019 E33.98339
G1 X114.373 Y119.632 E34.08268
G1 X111.508 Y120.474 E34.182
G1 X108.49 Y120.474 E34.28238
G1 X105.639 Y119.635 E34.38122
G1 X103.103 Y118.002 E34.48154
G1 X101.139 Y115.737 E34.58126
G1 X99.895 Y113.021 E34.68061
G1 X99.47 Y110.049 E34.78047
G1 X99.895 Y107.073 E34.88046
G1 X101.137 Y104.364 E34.97958
G1 X103.115 Y102.081 E35.08004
G0 F6000 X103.378 Y102.388
G1 F1200 X105.795 Y100.836 E35.17558
G1 X108.551 Y100.026 E35.27112
G1 X111.451 Y100.026 E35.36758
G1 X114.196 Y100.834 E35.46275
G1 X116.632 Y102.402 E35.5591
G1 X118.521 Y104.581 E35.65502
G1 X119.717 Y107.192 E35.75054
G1 X120.126 Y110.051 E35.8466
G1 X119.717 Y112.91 E35.94266
G1 X118.521 Y115.52 E36.03815
G1 X116.622 Y117.712 E36.13461
G1 X114.205 Y119.264 E36.23014
G1 X111.449 Y120.074 E36.32568
G1 X108.549 Y120.074 E36.42214
G1 X105.804 Y119.266 E36.51731
G1 X103.368 Y117.698 E36.61367
G1 X101.48 Y115.52 E36.70954
G1 X100.283 Y112.906 E36.80516
G1 X99.874 Y110.049 E36.90115
G1 X100.283 Y107.188 E36.99728
G1 X101.478 Y104.581 E37.09266
G1 X103.378 Y102.388 E37.18917
G0 F6000 X103.641 Y102.695
G1 F1200 X105.963 Y101.204 E37.28095
G1 X108.61 Y100.426 E37.37271
G1 X111.392 Y100.426 E37.46524
G1 X114.029 Y101.202 E37.55667
G1 X116.368 Y102.708 E37.6492
G1 X118.18 Y104.798 E37.7412
G1 X119.329 Y107.307 E37.83298
G1 X119.722 Y110.051 E37.92518
G1 X119.329 Y112.795 E38.01737
G1 X118.18 Y115.303 E38.10913
G1 X116.359 Y117.405 E38.20163
G1 X114.037 Y118.896 E38.29341
G1 X111.39 Y119.674 E38.38517
G1 X108.608 Y119.674 E38.4777
G1 X105.971 Y118.898 E38.56913
G1 X103.632 Y117.392 E38.66165
G1 X101.821 Y115.303 E38.75361
G1 X100.671 Y112.791 E38.8455
G1 X100.278 Y110.049 E38.93763
G1 X100.671 Y107.303 E39.02989
G1 X101.819 Y104.798 E39.12154
G1 X103.641 Y102.695 E39.21409
G0 F6000 X103.904 Y103.002
G1 F1200 X106.131 Y101.572 E39.30211
G1 X108.669 Y100.826 E39.3901
G1 X111.333 Y100.826 E39.4787
G1 X113.864 Y101.571 E39.56646
G1 X116.103 Y103.012 E39.65502
G1 X117.839 Y105.015 E39.74317
G1 X118.941 Y107.422 E39.83122
G1 X119.318 Y110.051 E39.91956
G1 X118.941 Y112.68 E40.00789
G1 X117.839 Y115.086 E40.09591
G1 X116.096 Y117.098 E40.18445
G1 X113.869 Y118.528 E40.27248
G1 X111.331 Y119.274 E40.36046
G1 X108.667 Y119.274 E40.44907
G1 X106.136 Y118.529 E40.53682
G1 X103.897 Y117.088 E40.62538
G1 X102.161 Y115.085 E40.71354
G1 X101.059 Y112.677 E40.80162
G1 X100.682 Y110.049 E40.88992
G1 X101.059 Y107.418 E40.97832
G1 X102.16 Y105.015 E41.06623
G1 X103.904 Y103.002 E41.15482
G0 F6000 X104.167 Y103.309
G1 F1200 X106.299 Y101.94 E41.23909
G1 X108.728 Y101.226 E41.3233
G1 X111.274 Y101.226 E41.40798
G1 X113.697 Y101.939 E41.49198
G1 X115.839 Y103.318 E41.57671
G1 X117.499 Y105.233 E41.66101
G1 X118.553 Y107.536 E41.74525
G1 X118.914 Y110.051 E41.82975
G1 X118.553 Y112.565 E41.91423
G1 X117.498 Y114.869 E41.99851
G1 X115.833 Y116.791 E42.08309
G1 X113.701 Y118.16 E42.16736
G1 X111.272 Y118.874 E42.25156
G1 X108.726 Y118.874 E42.33624
G1 X106.303 Y118.161 E42.42025
G1 X104.161 Y116.782 E42.50498
G1 X102.501 Y114.867 E42.58927
G1 X101.447 Y112.563 E42.67354
G1 X101.086 Y110.049 E42.75802
G1 X101.447 Y107.533 E42.84255
G1 X102.501 Y105.232 E42.92673
G1 X104.167 Y103.309 E43.01136
G0 F6000 X104.43 Y103.616
G1 F1200 X106.467 Y102.308 E43.09187
G1 X108.787 Y101.626 E43.1723
G1 X111.215 Y101.626 E43.25306
G1 X113.532 Y102.308 E43.33339
G1 X115.574 Y103.622 E43.41415
G1 X117.159 Y105.451 E43.49465
G1 X118.165 Y107.65 E43.57508
G1 X118.51 Y110.051 E43.65576
G1 X118.165 Y112.451 E43.7364
G1 X117.158 Y114.651 E43.81688
G1 X115.57 Y116.484 E43.89754
G1 X113.533 Y117.792 E43.97805
G1 X111.213 Y118.474 E44.05848
G1 X108.785 Y118.474 E44.13924
G1 X106.468 Y117.792 E44.21957
G1 X104.426 Y116.478 E44.30033
G1 X102.841 Y114.649 E44.38083
G1 X101.835 Y112.449 E44.46129
G1 X101.49 Y110.049 E44.54194
G1 X101.835 Y107.648 E44.62261
G1 X102.842 Y105.449 E44.70306
G1 X104.43 Y103.616 E44.78372
G0 F6000 X104.956 Y104.23
G1 F1200 X106.803 Y103.044 E44.85673
G1 X108.905 Y102.426 E44.9296
G1 X111.097 Y102.426 E45.0025
G1 X113.199 Y103.045 E45.07538
G1 X115.046 Y104.232 E45.14841
G1 X116.479 Y105.887 E45.22122
G1 X117.389 Y107.878 E45.29403
G1 X117.702 Y110.051 E45.36705
G1 X117.389 Y112.223 E45.44004
G1 X116.478 Y114.215 E45.51289
G1 X115.044 Y115.87 E45.58573
G1 X113.197 Y117.056 E45.65873
G1 X111.095 Y117.674 E45.7316
G1 X108.903 Y117.674 E45.80451
G1 X106.801 Y117.055 E45.87739
G1 X104.954 Y115.868 E45.95042
G1 X103.521 Y114.213 E46.02323
G1 X102.611 Y112.221 E46.09607
G1 X102.298 Y110.049 E46.16906
G1 X102.611 Y107.876 E46.24208
G1 X103.522 Y105.885 E46.3149
G1 X104.956 Y104.23 E46.38773
G0 F6000 X104.693 Y103.923
G1 F1200 X106.635 Y102.676 E46.46449
G1 X108.846 Y102.026 E46.54114
G1 X111.156 Y102.026 E46.61798
G1 X113.367 Y102.677 E46.69464
G1 X115.309 Y103.926 E46.77143
G1 X116.819 Y105.669 E46.84813
G1 X117.777 Y107.764 E46.92475
G1 X118.106 Y110.051 E47.0016
G1 X117.777 Y112.337 E47.07842
G1 X116.818 Y114.433 E47.15508
G1 X115.307 Y116.177 E47.23183
G1 X113.365 Y117.424 E47.30859
G1 X111.154 Y118.074 E47.38524
G1 X108.844 Y118.074 E47.46207
G1 X106.633 Y117.423 E47.53873
G1 X104.691 Y116.174 E47.61553
G1 X103.181 Y114.431 E47.69223
G1 X102.223 Y112.335 E47.76888
G1 X101.894 Y110.049 E47.8457
G1 X102.223 Y107.762 E47.92254
G1 X103.182 Y105.667 E47.99918
G1 X104.693 Y103.923 E48.07593
G1 F1500 E41.57593
;MESH:Test_Colonne.stl
G0 F6000 X105.366 Y104.703
G0 X109.017 Y116.874
;TYPE:WALL-INNER
G1 F1500 E48.07593
G1 F1200 X110.981 Y116.873 E48.14125
G1 X112.861 Y116.321 E48.20642
G1 X114.51 Y115.26 E48.27164
G1 X115.798 Y113.776 E48.33699
G1 X116.616 Y111.989 E48.40236
G1 X116.894 Y110.051 E48.46748
G1 X116.616 Y108.113 E48.5326
G1 X115.799 Y106.324 E48.59801
G1 X114.512 Y104.843 E48.66327
G1 X112.863 Y103.78 E48.72852
G1 X110.983 Y103.227 E48.7937
G1 X109.019 Y103.226 E48.85902
G1 X107.139 Y103.779 E48.9242
G1 X105.489 Y104.84 E48.98945
G1 X104.202 Y106.323 E49.05476
G1 X103.384 Y108.111 E49.12015
G1 X103.106 Y110.049 E49.18527
G1 X103.384 Y111.987 E49.25039
G1 X104.201 Y113.776 E49.3158
G1 X105.488 Y115.259 E49.38111
G1 X107.137 Y116.32 E49.44633
G1 X109.017 Y116.874 E49.51152
G0 F6000 X108.959 Y117.274
;TYPE:WALL-OUTER
G1 F1200 X111.039 Y117.273 E49.5807
G1 X113.029 Y116.689 E49.64968
G1 X114.775 Y115.566 E49.71872
G1 X116.138 Y113.995 E49.7879
G1 X117.004 Y112.103 E49.85711
G1 X117.298 Y110.051 E49.92605
