;FLAVOR:Marlin
;TIME:8145
;Filament used: 3.72702m
;Layer height: 0.12
;MINX:92.882
;MINY:18.904
;MINZ:0.2
;MAXX:127.084
;MAXY:200.8
;MAXZ:14.84
;Generated with Cura_SteamEngine 5.4.0
M82 ;absolute extrusion mode
; Ender 3 Custom Start G-code
G92 E0 ; Reset Extruder
G28 ; Home all axes
G29 ; CR Touch ABL
M104 S175 ; Start heating up the nozzle most of the way
M190 S60 ; Start heating the bed, wait until target temperature reached
M109 S200 ; Finish heating the nozzle
G1 Z2.0 F3000 ; Move Z Axis up little to prevent scratching of Heat Bed
G1 X0.1 Y20 Z0.3 F5000.0 ; Move to start position
G1 X0.1 Y200.0 Z0.3 F1500.0 E15 ; Draw the first line
G1 X0.4 Y200.0 Z0.3 F5000.0 ; Move to side a little
G1 X0.4 Y20 Z0.3 F1500.0 E30 ; Draw the second line
G92 E0 ; Reset Extruder
G1 Z2.0 F3000 ; Move Z Axis up little to prevent scratching of Heat Bed
G1 X5 Y20 Z0.3 F5000.0 ; Move over to prevent blob squish
G92 E0
G92 E0
G1 F1500 E-6.5
;LAYER_COUNT:105
;LAYER:0
M107
G0 F6000 X93.429 Y27.039 Z0.2
;TYPE:SKIRT
G1 F1500 E0
G1 F1200 X93.718 Y26.127 E0.01909
G1 X94.063 Y25.294 E0.03708
G1 X94.535 Y24.394 E0.05737
G1 X95.055 Y23.589 E0.07649
G1 X95.645 Y22.833 E0.09563
G1 X96.298 Y22.133 E0.11473
G1 X97.012 Y21.493 E0.13387
G1 X97.755 Y20.935 E0.15241
G1 X98.6 Y20.414 E0.17222
G1 X99.645 Y19.901 E0.19545
G1 X99.992 Y19.755 E0.20296
G1 X100.889 Y19.423 E0.22205
G1 X101.758 Y19.184 E0.24004
G1 X102.763 Y19.004 E0.26041
G1 X103.868 Y18.914 E0.28254
G1 X104.564 Y18.904 E0.29643
G1 X105.394 Y18.919 E0.31299
G1 X106.148 Y18.951 E0.32805
G1 X108.749 Y19.026 E0.37998
G1 X111.224 Y19.026 E0.42937
G1 X114.423 Y18.925 E0.49324
G1 X115.694 Y18.91 E0.51861
G1 X116.651 Y18.944 E0.53772
G1 X117.546 Y19.054 E0.55572
G1 X118.435 Y19.24 E0.57384
G1 X118.754 Y19.322 E0.58041
G1 X119.671 Y19.6 E0.59954
G1 X120.534 Y19.948 E0.61811
G1 X121.412 Y20.396 E0.63778
G1 X122.222 Y20.906 E0.65688
G1 X122.985 Y21.486 E0.676
G1 X123.693 Y22.131 E0.69512
G1 X124.343 Y22.837 E0.71427
G1 X124.925 Y23.597 E0.73337
G1 X125.442 Y24.412 E0.75263
G1 X125.986 Y25.496 E0.77683
G1 X126.137 Y25.848 E0.78448
G1 X126.476 Y26.744 E0.8036
G1 X126.721 Y27.611 E0.82158
G1 X126.91 Y28.615 E0.84196
G1 X127.008 Y29.74 E0.8645
G1 X127.021 Y30.307 E0.87582
G1 X127.022 Y34.254 E0.95458
G1 X127.05 Y36.542 E1.00025
G1 X127.084 Y37.931 E1.02797
G1 X127.057 Y38.964 E1.0486
G1 X126.878 Y41.402 E1.09738
G1 X126.762 Y43.921 E1.1477
G1 X126.714 Y46.898 E1.20712
G1 X126.713 Y189.413 E4.05116
G1 X126.701 Y190.168 E4.06623
G1 X126.645 Y191.125 E4.08536
G1 X126.513 Y192.016 E4.10333
G1 X126.29 Y192.949 E4.12248
G1 X125.967 Y193.911 E4.14273
G1 X125.581 Y194.786 E4.16181
G1 X125.148 Y195.577 E4.17981
G1 X124.582 Y196.419 E4.20006
G1 X123.978 Y197.165 E4.21921
G1 X123.311 Y197.851 E4.2383
G1 X122.607 Y198.459 E4.25687
G1 X121.829 Y199.02 E4.27601
G1 X120.982 Y199.522 E4.29566
G1 X120.116 Y199.936 E4.31481
G1 X119.272 Y200.252 E4.3328
G1 X118.295 Y200.523 E4.35303
G1 X117.345 Y200.694 E4.37229
G1 X116.204 Y200.787 E4.39514
G1 X115.584 Y200.8 E4.40752
G1 X113.114 Y200.799 E4.45681
G1 X111.216 Y200.772 E4.49469
G1 X108.604 Y200.772 E4.54681
G1 X107.351 Y200.798 E4.57182
G1 X104.654 Y200.799 E4.62564
G1 X103.928 Y200.788 E4.64013
G1 X102.97 Y200.733 E4.65928
G1 X102.078 Y200.601 E4.67728
G1 X101.092 Y200.364 E4.69752
G1 X100.185 Y200.057 E4.71662
G1 X99.307 Y199.672 E4.73576
G1 X98.517 Y199.239 E4.75373
G1 X97.674 Y198.674 E4.77399
G1 X96.951 Y198.09 E4.79253
G1 X96.241 Y197.405 E4.81222
G1 X95.65 Y196.724 E4.83022
G1 X95.056 Y195.902 E4.85045
G1 X94.595 Y195.127 E4.86845
G1 X94.155 Y194.213 E4.88869
G1 X93.828 Y193.343 E4.90724
G1 X93.565 Y192.39 E4.92697
G1 X93.394 Y191.441 E4.94621
G1 X93.298 Y190.259 E4.96988
G1 X93.286 Y189.635 E4.98233
G1 X93.265 Y47.072 E7.82733
G1 X93.228 Y44.48 E7.87906
G1 X93.118 Y41.93 E7.93
G1 X92.906 Y38.986 E7.9889
G1 X92.882 Y37.968 E8.00922
G1 X92.904 Y37.1 E8.02655
G1 X92.952 Y35.842 E8.05167
G1 X92.978 Y33.73 E8.09382
G1 X92.979 Y30.608 E8.15613
G1 X92.991 Y29.914 E8.16998
G1 X93.049 Y28.959 E8.18907
G1 X93.182 Y28.067 E8.20707
G1 X93.352 Y27.325 E8.22226
G1 X93.429 Y27.039 E8.22817
G0 F6000 X93.734 Y27.135
G1 F1200 X94.014 Y26.249 E8.24671
G1 X94.359 Y25.416 E8.26471
G1 X94.804 Y24.567 E8.28384
G1 X95.308 Y23.785 E8.3024
G1 X95.879 Y23.051 E8.32096
G1 X96.512 Y22.371 E8.3395
G1 X97.204 Y21.749 E8.35807
G1 X97.947 Y21.191 E8.37661
G1 X98.741 Y20.701 E8.39523
G1 X99.769 Y20.196 E8.41809
G1 X100.103 Y20.055 E8.42532
G1 X100.974 Y19.732 E8.44386
G1 X101.843 Y19.493 E8.46185
G1 X102.789 Y19.323 E8.48103
G1 X103.873 Y19.234 E8.50273
G1 X104.558 Y19.224 E8.5164
G1 X105.38 Y19.239 E8.53281
G1 X106.134 Y19.271 E8.54787
G1 X108.74 Y19.346 E8.5999
G1 X111.234 Y19.346 E8.64967
G1 X114.427 Y19.245 E8.71342
G1 X115.683 Y19.23 E8.73849
G1 X116.612 Y19.262 E8.75704
G1 X117.507 Y19.372 E8.77503
G1 X118.356 Y19.55 E8.79234
G1 X118.661 Y19.628 E8.79863
G1 X119.551 Y19.897 E8.81718
G1 X120.414 Y20.245 E8.83575
G1 X121.242 Y20.667 E8.8543
G1 X122.029 Y21.161 E8.87284
G1 X122.77 Y21.723 E8.8914
G1 X123.458 Y22.348 E8.90995
G1 X124.089 Y23.032 E8.92852
G1 X124.655 Y23.769 E8.94706
G1 X125.156 Y24.556 E8.96568
G1 X125.692 Y25.623 E8.98951
G1 X125.838 Y25.962 E8.99687
G1 X126.168 Y26.831 E9.01542
G1 X126.413 Y27.698 E9.0334
G1 X126.591 Y28.643 E9.05259
G1 X126.688 Y29.747 E9.07471
G1 X126.701 Y30.307 E9.08589
G1 X126.702 Y34.254 E9.16466
G1 X126.73 Y36.55 E9.21048
G1 X126.764 Y37.923 E9.23789
G1 X126.738 Y38.941 E9.25821
G1 X126.558 Y41.387 E9.30715
G1 X126.442 Y43.906 E9.35748
G1 X126.394 Y46.893 E9.41709
G1 X126.393 Y189.408 E12.26113
G1 X126.382 Y190.149 E12.27592
G1 X126.328 Y191.078 E12.29449
G1 X126.196 Y191.969 E12.31247
G1 X125.979 Y192.874 E12.33104
G1 X125.674 Y193.782 E12.35015
G1 X125.3 Y194.632 E12.36869
G1 X124.867 Y195.423 E12.38668
G1 X124.333 Y196.218 E12.40579
G1 X123.748 Y196.942 E12.42437
G1 X123.101 Y197.609 E12.44291
G1 X122.42 Y198.199 E12.46089
G1 X121.642 Y198.76 E12.48004
G1 X120.844 Y199.233 E12.49855
G1 X120.004 Y199.636 E12.51714
G1 X119.16 Y199.952 E12.53513
G1 X118.238 Y200.208 E12.55422
G1 X117.319 Y200.375 E12.57286
G1 X116.197 Y200.467 E12.59533
G1 X115.584 Y200.48 E12.60756
G1 X113.119 Y200.479 E12.65675
G1 X111.221 Y200.452 E12.69464
G1 X108.597 Y200.452 E12.747
G1 X107.351 Y200.478 E12.77187
G1 X104.658 Y200.479 E12.82561
G1 X103.946 Y200.469 E12.83982
G1 X103.017 Y200.416 E12.85839
G1 X102.125 Y200.284 E12.87639
G1 X101.194 Y200.061 E12.89549
G1 X100.313 Y199.764 E12.91404
G1 X99.461 Y199.391 E12.93261
G1 X98.671 Y198.958 E12.95058
G1 X97.875 Y198.425 E12.9697
G1 X97.173 Y197.859 E12.9877
G1 X96.483 Y197.195 E13.00681
G1 X95.892 Y196.514 E13.0248
G1 X95.331 Y195.738 E13.04391
G1 X94.87 Y194.963 E13.0619
G1 X94.455 Y194.1 E13.08101
G1 X94.128 Y193.23 E13.09956
G1 X93.88 Y192.333 E13.11813
G1 X93.713 Y191.415 E13.13675
G1 X93.618 Y190.253 E13.16002
G1 X93.606 Y189.635 E13.17236
G1 X93.585 Y47.072 E16.01735
G1 X93.548 Y44.475 E16.06919
G1 X93.438 Y41.916 E16.1203
G1 X93.226 Y38.978 E16.17908
G1 X93.202 Y37.976 E16.19909
G1 X93.224 Y37.112 E16.21633
G1 X93.272 Y35.854 E16.24146
G1 X93.298 Y33.734 E16.28377
G1 X93.299 Y30.613 E16.34605
G1 X93.31 Y29.933 E16.35962
G1 X93.366 Y29.006 E16.37815
G1 X93.499 Y28.114 E16.39615
G1 X93.661 Y27.408 E16.41061
G1 X93.734 Y27.135 E16.41625
G0 F6000 X94.039 Y27.231
G1 F1200 X94.31 Y26.371 E16.43424
G1 X94.655 Y25.538 E16.45223
G1 X95.073 Y24.74 E16.47021
G1 X95.561 Y23.981 E16.48822
G1 X96.113 Y23.269 E16.5062
G1 X96.726 Y22.609 E16.52417
G1 X97.396 Y22.005 E16.54217
G1 X98.116 Y21.463 E16.56016
G1 X98.882 Y20.988 E16.57815
G1 X99.894 Y20.491 E16.60064
G1 X100.215 Y20.355 E16.6076
G1 X101.059 Y20.041 E16.62557
G1 X101.928 Y19.802 E16.64356
G1 X102.815 Y19.642 E16.66155
G1 X103.878 Y19.554 E16.68283
G1 X104.552 Y19.544 E16.69628
G1 X105.366 Y19.559 E16.71253
G1 X106.12 Y19.591 E16.72759
G1 X108.731 Y19.666 E16.77972
G1 X111.244 Y19.666 E16.82987
G1 X114.431 Y19.565 E16.8935
G1 X115.672 Y19.55 E16.91827
G1 X116.573 Y19.58 E16.93626
G1 X117.468 Y19.69 E16.95425
G1 X118.277 Y19.86 E16.97075
G1 X118.569 Y19.934 E16.97676
G1 X119.432 Y20.194 E16.99475
G1 X120.269 Y20.53 E17.01275
G1 X121.072 Y20.938 E17.03072
G1 X121.836 Y21.416 E17.0487
G1 X122.555 Y21.96 E17.0667
G1 X123.223 Y22.565 E17.08468
G1 X123.835 Y23.227 E17.10267
G1 X124.385 Y23.941 E17.12066
G1 X124.87 Y24.7 E17.13864
G1 X125.398 Y25.75 E17.16209
G1 X125.539 Y26.076 E17.16918
G1 X125.86 Y26.918 E17.18716
G1 X126.105 Y27.785 E17.20514
G1 X126.272 Y28.671 E17.22313
G1 X126.368 Y29.755 E17.24485
G1 X126.381 Y30.307 E17.25587
G1 X126.382 Y34.254 E17.33463
G1 X126.41 Y36.558 E17.38062
G1 X126.444 Y37.915 E17.40771
G1 X126.419 Y38.917 E17.42771
G1 X126.238 Y41.372 E17.47683
G1 X126.122 Y43.891 E17.52716
G1 X126.074 Y46.888 E17.58697
G1 X126.073 Y189.404 E20.43103
G1 X126.063 Y190.131 E20.44554
G1 X126.011 Y191.031 E20.46353
G1 X125.879 Y191.922 E20.48151
G1 X125.668 Y192.799 E20.49951
G1 X125.381 Y193.653 E20.51749
G1 X125.019 Y194.478 E20.53547
G1 X124.586 Y195.269 E20.55346
G1 X124.084 Y196.017 E20.57144
G1 X123.518 Y196.719 E20.58943
G1 X122.891 Y197.367 E20.60743
G1 X122.21 Y197.957 E20.62541
G1 X121.479 Y198.485 E20.6434
G1 X120.705 Y198.945 E20.66137
G1 X119.892 Y199.336 E20.67938
G1 X119.048 Y199.652 E20.69736
G1 X118.18 Y199.893 E20.71534
G1 X117.293 Y200.056 E20.73334
G1 X116.19 Y200.147 E20.75542
G1 X115.584 Y200.16 E20.76752
G1 X113.124 Y200.159 E20.81661
G1 X111.226 Y200.132 E20.85449
G1 X108.59 Y200.132 E20.90709
G1 X107.351 Y200.158 E20.93183
G1 X104.662 Y200.159 E20.98549
G1 X103.964 Y200.15 E20.99942
G1 X103.064 Y200.099 E21.01741
G1 X102.172 Y199.967 E21.0354
G1 X101.296 Y199.758 E21.05337
G1 X100.441 Y199.471 E21.07137
G1 X99.615 Y199.11 E21.08936
G1 X98.825 Y198.677 E21.10734
G1 X98.076 Y198.176 E21.12532
G1 X97.374 Y197.61 E21.14332
G1 X96.725 Y196.985 E21.1613
G1 X96.134 Y196.304 E21.17929
G1 X95.606 Y195.574 E21.19727
G1 X95.145 Y194.799 E21.21527
G1 X94.754 Y193.987 E21.23325
G1 X94.436 Y193.144 E21.25123
G1 X94.195 Y192.275 E21.26923
G1 X94.032 Y191.389 E21.28721
G1 X93.938 Y190.247 E21.31007
G1 X93.926 Y189.635 E21.32229
G1 X93.905 Y47.072 E24.16729
G1 X93.868 Y44.47 E24.21922
G1 X93.758 Y41.902 E24.27051
G1 X93.546 Y38.97 E24.32918
G1 X93.522 Y37.984 E24.34886
G1 X93.544 Y37.124 E24.36603
G1 X93.592 Y35.866 E24.39115
G1 X93.618 Y33.738 E24.43362
G1 X93.619 Y30.618 E24.49588
G1 X93.629 Y29.952 E24.50918
G1 X93.683 Y29.053 E24.52715
G1 X93.816 Y28.161 E24.54515
G1 X93.97 Y27.49 E24.55888
G1 X94.039 Y27.231 E24.56423
G1 F1500 E18.06423
G0 F6000 X103.985 Y29.952
G1 F1500 E24.56423
G1 F1200 X104.209 Y29.86 E24.56907
G1 X104.898 Y29.86 E24.58282
G1 X105.468 Y30.088 E24.59507
G1 X105.492 Y30.095 E24.59557
G1 X106.011 Y30.212 E24.60618
G1 X106.029 Y30.215 E24.60655
G1 X106.322 Y30.246 E24.61243
G1 X106.333 Y30.247 E24.61265
G1 X106.65 Y30.259 E24.61898
G1 X106.656 Y30.259 E24.6191
G1 X107.817 Y30.26 E24.64227
G1 X107.817 Y30.54 E24.64785
G1 X106.608 Y30.54 E24.67198
G1 X106.504 Y30.579 E24.6742
G1 X106.448 Y30.7 E24.67686
G1 X106.447 Y38.44 E24.83132
G1 X106.299 Y38.44 E24.83427
G1 X106.195 Y38.479 E24.83649
G1 X106.139 Y38.6 E24.83915
G1 X106.139 Y189.4 E27.84853
G1 X106.178 Y189.504 E27.85074
G1 X106.299 Y189.56 E27.8534
G1 X107.291 Y189.56 E27.8732
G1 X107.291 Y189.84 E27.87879
G1 X104.246 Y189.84 E27.93955
G1 X104.224 Y40.588 E30.91804
G1 X104.224 Y40.579 E30.91822
G1 X104.195 Y40.091 E30.92797
G1 X104.15 Y39.989 E30.9302
G1 X104.141 Y39.985 E30.9304
G1 X104.141 Y39.685 E30.93638
G1 X104.114 Y39.299 E30.9441
G1 X104.111 Y39.279 E30.94451
G1 X104.001 Y38.721 E30.95586
G1 X103.995 Y38.7 E30.95629
G1 X103.831 Y38.22 E30.96642
G1 X103.919 Y37.237 E30.98611
G1 X103.92 Y37.23 E30.98625
G1 X103.938 Y36.793 E30.99498
G1 X103.938 Y30.12 E31.12815
G1 X103.985 Y29.952 E31.13163
G0 F6000 X104.258 Y30.185
G1 F1200 X104.271 Y30.18 E31.13191
G1 X104.836 Y30.18 E31.14318
G1 X105.349 Y30.385 E31.15421
G1 X105.421 Y30.407 E31.15571
G1 X105.94 Y30.524 E31.16633
G1 X105.995 Y30.533 E31.16744
G1 X106.154 Y30.55 E31.17063
G1 X106.128 Y30.7 E31.17367
G1 X106.127 Y38.156 E31.32246
G1 X106.108 Y38.16 E31.32285
G1 X105.949 Y38.272 E31.32673
G1 X105.847 Y38.438 E31.33062
G1 X105.819 Y38.6 E31.3339
G1 X105.819 Y189.4 E34.34327
G1 X105.844 Y189.52 E34.34572
G1 X104.566 Y189.52 E34.37122
G1 X104.544 Y40.588 E37.34332
G1 X104.543 Y40.56 E37.34388
G1 X104.514 Y40.072 E37.35364
G1 X104.463 Y39.883 E37.35755
G1 X104.461 Y39.696 E37.36128
G1 X104.46 Y39.663 E37.36194
G1 X104.433 Y39.277 E37.36966
G1 X104.425 Y39.217 E37.37087
G1 X104.315 Y38.659 E37.38222
G1 X104.298 Y38.597 E37.3835
G1 X104.156 Y38.182 E37.39225
G1 X104.238 Y37.266 E37.4106
G1 X104.24 Y37.243 E37.41107
G1 X104.258 Y36.806 E37.41979
G1 X104.258 Y30.185 E37.55192
G0 F6000 X104.578 Y30.5
G1 F1200 X104.775 Y30.5 E37.55585
G1 X105.23 Y30.682 E37.56563
G1 X105.351 Y30.719 E37.56816
G1 X105.808 Y30.822 E37.57751
G1 X105.807 Y37.974 E37.72023
G1 X105.648 Y38.134 E37.72473
G1 X105.536 Y38.36 E37.72977
G1 X105.499 Y38.6 E37.73461
G1 X105.499 Y189.2 E40.74
G1 X104.886 Y189.2 E40.75223
G1 X104.864 Y40.588 E43.71795
G1 X104.863 Y40.541 E43.71888
G1 X104.834 Y40.053 E43.72864
G1 X104.781 Y39.815 E43.73351
G1 X104.781 Y39.696 E43.73588
G1 X104.779 Y39.64 E43.737
G1 X104.752 Y39.254 E43.74472
G1 X104.739 Y39.155 E43.74671
G1 X104.629 Y38.597 E43.75806
G1 X104.601 Y38.493 E43.76021
G1 X104.481 Y38.142 E43.76762
G1 X104.557 Y37.294 E43.78461
G1 X104.559 Y37.256 E43.78537
G1 X104.577 Y36.819 E43.79409
G1 X104.578 Y36.786 E43.79475
G1 X104.578 Y30.5 E43.9202
G0 F6000 X104.898 Y30.894
G1 F1200 X105.111 Y30.979 E43.92477
G1 X105.281 Y31.032 E43.92833
G1 X105.488 Y31.079 E43.93256
G1 X105.487 Y37.831 E44.06731
G1 X105.317 Y38.062 E44.07303
G1 X105.209 Y38.341 E44.079
G1 X105.179 Y38.6 E44.0842
G1 X105.179 Y40.472 E44.12156
G1 X105.153 Y40.034 E44.13032
G1 X105.101 Y39.766 E44.13577
G1 X105.101 Y39.696 E44.13716
G1 X105.098 Y39.618 E44.13872
G1 X105.071 Y39.232 E44.14644
G1 X105.053 Y39.093 E44.14924
G1 X104.943 Y38.535 E44.16059
G1 X104.904 Y38.39 E44.16359
G1 X104.806 Y38.104 E44.16962
G1 X104.876 Y37.323 E44.18527
G1 X104.879 Y37.269 E44.18635
G1 X104.897 Y36.832 E44.19507
G1 X104.898 Y36.786 E44.19599
G1 X104.898 Y30.894 E44.31357
G1 F1500 E37.81357
G0 F6000 X105.167 Y37.651
G1 F1500 E44.31357
G1 F1200 X105.167 Y37.718 E44.31491
G1 X105.161 Y37.725 E44.31509
G1 X105.167 Y37.651 E44.31658
G1 F1500 E37.81658
G0 F6000 X105.955 Y30.047
G0 X114.046 Y30.047
G0 X114.045 Y37.947
G0 X113.872 Y38.154
G1 F1500 E44.31658
G1 F1200 X113.873 Y30.7 E44.46533
G1 X113.843 Y30.557 E44.46824
G1 X113.913 Y30.548 E44.46965
G1 X114.422 Y30.449 E44.48
G1 X114.496 Y30.428 E44.48154
G1 X115.056 Y30.222 E44.49344
G1 X115.127 Y30.19 E44.495
G1 X115.145 Y30.18 E44.49541
G1 X115.738 Y30.18 E44.50724
G1 X115.743 Y30.192 E44.5075
G1 X115.742 Y37.375 E44.65085
G1 X115.744 Y37.421 E44.65177
G1 X115.811 Y38.119 E44.66576
G1 X115.684 Y38.607 E44.67582
G1 X115.677 Y38.639 E44.67648
G1 X115.595 Y39.073 E44.68529
G1 X115.589 Y39.114 E44.68612
G1 X115.546 Y39.546 E44.69478
G1 X115.544 Y39.588 E44.69562
G1 X115.541 Y39.854 E44.70093
G1 X115.489 Y39.938 E44.7029
G1 X115.461 Y40.083 E44.70585
G1 X115.434 Y40.835 E44.72086
G1 X115.434 Y189.52 E47.68803
G1 X114.16 Y189.52 E47.71346
G1 X114.181 Y189.4 E47.71589
G1 X114.181 Y38.6 E50.72527
G1 X114.141 Y38.409 E50.72916
G1 X114.029 Y38.25 E50.73304
G1 X113.872 Y38.154 E50.73671
G0 F6000 X113.701 Y38.44
G1 F1200 X113.552 Y38.44 E50.73969
G1 X113.553 Y30.7 E50.89415
G1 X113.514 Y30.596 E50.89636
G1 X113.393 Y30.54 E50.89902
G1 X112.184 Y30.54 E50.92315
G1 X112.184 Y30.259 E50.92876
G1 X113.389 Y30.256 E50.95281
G1 X113.396 Y30.256 E50.95295
G1 X113.828 Y30.237 E50.96157
G1 X113.852 Y30.234 E50.96206
G1 X114.361 Y30.135 E50.97241
G1 X114.385 Y30.128 E50.9729
G1 X114.945 Y29.922 E50.98481
G1 X114.969 Y29.911 E50.98534
G1 X115.059 Y29.86 E50.9874
G1 X115.803 Y29.86 E51.00225
G1 X115.972 Y29.906 E51.00575
G1 X116.063 Y30.13 E51.01057
G1 X116.062 Y37.375 E51.15515
G1 X116.063 Y37.39 E51.15545
G1 X116.135 Y38.144 E51.17057
