;FLAVOR:Marlin
;TIME:9562
;Filament used: 4.83313m
;Layer height: 0.12
;MINX:52.62
;MINY:52.62
;MINZ:0.2
;MAXX:167.38
;MAXY:167.38
;MAXZ:7.88
;Generated with Cura_SteamEngine 5.4.0
M82 ;absolute extrusion mode
; Ender 3 Custom Start G-code
G92 E0 ; Reset Extruder
G28 ; Home all axes
G29 ; CR Touch ABL
M104 S175 ; Start heating up the nozzle most of the way
M190 S60 ; Start heating the bed, wait until target temperature reached
M109 S200 ; Finish heating the nozzle
G1 Z2.0 F3000 ; Move Z Axis up little to prevent scratching of Heat Bed
G1 X0.1 Y20 Z0.3 F5000.0 ; Move to start position
G1 X0.1 Y200.0 Z0.3 F1500.0 E15 ; Draw the first line
G1 X0.4 Y200.0 Z0.3 F5000.0 ; Move to side a little
G1 X0.4 Y20 Z0.3 F1500.0 E30 ; Draw the second line
G92 E0 ; Reset Extruder
G1 Z2.0 F3000 ; Move Z Axis up little to prevent scratching of Heat Bed
G1 X5 Y20 Z0.3 F5000.0 ; Move over to prevent blob squish
G92 E0
G92 E0
G1 F1500 E-6.5
;LAYER_COUNT:49
;LAYER:0
M107
G0 F6000 X67.494 Y71.485 Z0.2
;TYPE:SKIRT
G1 F1500 E0
G1 F1200 X68.841 Y70.189 E0.0373
G1 X70.69 Y68.334 E0.08957
G1 X71.498 Y67.492 E0.11286
G1 X72.44 Y66.623 E0.13843
G1 X72.922 Y66.229 E0.15086
G1 X75.904 Y63.871 E0.22672
G1 X76.488 Y63.424 E0.2414
G1 X76.965 Y63.079 E0.25315
G1 X77.427 Y62.771 E0.26423
G1 X80.825 Y60.611 E0.34458
G1 X81.465 Y60.219 E0.35956
G1 X81.939 Y59.945 E0.37048
G1 X82.454 Y59.673 E0.38211
G1 X86.074 Y57.866 E0.46285
G1 X86.712 Y57.559 E0.47698
G1 X87.234 Y57.325 E0.48839
G1 X87.82 Y57.088 E0.50101
G1 X91.576 Y55.677 E0.58108
G1 X92.251 Y55.435 E0.59539
G1 X92.8 Y55.255 E0.60692
G1 X93.353 Y55.098 E0.61839
G1 X97.238 Y54.075 E0.69856
G1 X97.924 Y53.906 E0.71266
G1 X98.461 Y53.789 E0.72363
G1 X99.095 Y53.675 E0.73648
G1 X102.905 Y53.082 E0.81343
G1 X103.76 Y52.962 E0.83066
G1 X104.444 Y52.889 E0.84439
G1 X105.137 Y52.839 E0.85825
G1 X108.775 Y52.654 E0.93095
G1 X109.667 Y52.622 E0.94876
G1 X110.375 Y52.62 E0.96289
G1 X111.082 Y52.644 E0.97701
G1 X114.697 Y52.835 E1.04925
G1 X115.551 Y52.891 E1.06633
G1 X116.192 Y52.954 E1.07918
G1 X116.901 Y53.049 E1.09345
G1 X120.541 Y53.619 E1.16698
G1 X121.433 Y53.77 E1.18503
G1 X122.037 Y53.894 E1.19734
G1 X122.555 Y54.019 E1.20797
G1 X126.433 Y55.042 E1.28801
G1 X127.117 Y55.233 E1.30218
G1 X127.691 Y55.412 E1.31418
G1 X128.246 Y55.608 E1.32593
G1 X131.981 Y57.017 E1.40559
G1 X132.654 Y57.282 E1.42002
G1 X133.285 Y57.555 E1.43374
G1 X133.946 Y57.871 E1.44837
G1 X137.186 Y59.493 E1.52067
G1 X137.945 Y59.885 E1.53772
G1 X138.494 Y60.19 E1.55025
G1 X138.982 Y60.486 E1.56164
G1 X142.253 Y62.568 E1.63902
G1 X142.98 Y63.046 E1.65638
G1 X143.543 Y63.445 E1.67016
G1 X144.112 Y63.878 E1.68442
G1 X147.06 Y66.217 E1.75952
G1 X147.625 Y66.679 E1.77409
G1 X148.501 Y67.48 E1.79778
G1 X149.801 Y68.831 E1.83519
G1 X151.663 Y70.686 E1.88764
G1 X152.497 Y71.486 E1.9107
G1 X153.382 Y72.445 E1.93675
G1 X153.774 Y72.925 E1.94911
G1 X156.132 Y75.906 E2.02496
G1 X156.58 Y76.491 E2.03967
G1 X156.909 Y76.947 E2.05089
G1 X157.229 Y77.427 E2.0624
G1 X159.389 Y80.825 E2.14275
G1 X159.781 Y81.465 E2.15773
G1 X160.055 Y81.939 E2.16866
G1 X160.327 Y82.454 E2.18028
G1 X162.124 Y86.053 E2.26056
G1 X162.428 Y86.681 E2.27448
G1 X162.71 Y87.321 E2.28844
G1 X162.96 Y87.944 E2.30183
G1 X164.267 Y91.423 E2.376
G1 X164.562 Y92.243 E2.39339
G1 X164.743 Y92.798 E2.40504
G1 X164.903 Y93.354 E2.41658
G1 X165.887 Y97.087 E2.49362
G1 X166.092 Y97.912 E2.51059
G1 X166.218 Y98.494 E2.52247
G1 X166.325 Y99.095 E2.53465
G1 X166.94 Y103.051 E2.61455
G1 X167.038 Y103.754 E2.62871
G1 X167.112 Y104.448 E2.64264
G1 X167.161 Y105.137 E2.65643
G1 X167.346 Y108.775 E2.72912
G1 X167.378 Y109.655 E2.74669
G1 X167.38 Y110.363 E2.76082
G1 X167.356 Y111.081 E2.77516
G1 X167.165 Y114.696 E2.8474
G1 X167.109 Y115.55 E2.86448
G1 X167.046 Y116.197 E2.87745
G1 X166.951 Y116.899 E2.89159
G1 X166.382 Y120.539 E2.96511
G1 X166.237 Y121.394 E2.98242
G1 X166.114 Y121.999 E2.99474
G1 X165.981 Y122.555 E3.00615
G1 X164.958 Y126.433 E3.08618
G1 X164.767 Y127.117 E3.10036
G1 X164.588 Y127.691 E3.11235
G1 X164.392 Y128.246 E3.1241
G1 X162.983 Y131.981 E3.20376
G1 X162.718 Y132.654 E3.2182
G1 X162.445 Y133.285 E3.23192
G1 X162.129 Y133.946 E3.24654
G1 X160.507 Y137.186 E3.31885
G1 X160.115 Y137.945 E3.33589
G1 X159.81 Y138.494 E3.34843
G1 X159.514 Y138.982 E3.35982
G1 X157.432 Y142.253 E3.43719
G1 X156.954 Y142.98 E3.45456
G1 X156.555 Y143.543 E3.46833
G1 X156.122 Y144.112 E3.4826
G1 X153.783 Y147.06 E3.5577
G1 X153.321 Y147.625 E3.57226
G1 X152.52 Y148.501 E3.59595
G1 X151.164 Y149.806 E3.63351
G1 X149.328 Y151.648 E3.68541
G1 X148.52 Y152.49 E3.70869
G1 X147.553 Y153.382 E3.73495
G1 X146.953 Y153.871 E3.75039
G1 X144.093 Y156.132 E3.82315
G1 X143.505 Y156.582 E3.83793
G1 X142.926 Y156.993 E3.8521
G1 X142.384 Y157.351 E3.86506
G1 X139.179 Y159.387 E3.94083
G1 X138.546 Y159.775 E3.95565
G1 X138.075 Y160.048 E3.96651
G1 X137.547 Y160.327 E3.97843
G1 X133.92 Y162.137 E4.05932
G1 X133.282 Y162.444 E4.07345
G1 X132.766 Y162.675 E4.08473
G1 X132.18 Y162.912 E4.09735
G1 X128.424 Y164.323 E4.17742
G1 X127.749 Y164.565 E4.19173
G1 X127.2 Y164.745 E4.20326
G1 X126.647 Y164.902 E4.21473
G1 X122.762 Y165.925 E4.2949
G1 X122.076 Y166.094 E4.309
G1 X121.539 Y166.211 E4.31997
G1 X120.905 Y166.325 E4.33282
G1 X116.949 Y166.94 E4.41272
G1 X116.246 Y167.038 E4.42688
G1 X115.552 Y167.112 E4.44081
G1 X114.863 Y167.161 E4.4546
G1 X111.226 Y167.346 E4.52727
G1 X110.334 Y167.378 E4.54508
G1 X109.626 Y167.38 E4.55921
G1 X108.919 Y167.356 E4.57333
G1 X105.304 Y167.165 E4.64557
G1 X104.45 Y167.109 E4.66265
G1 X103.803 Y167.046 E4.67562
G1 X103.101 Y166.951 E4.68976
G1 X99.46 Y166.381 E4.7633
G1 X98.567 Y166.23 E4.78138
G1 X97.963 Y166.106 E4.79368
G1 X97.445 Y165.981 E4.80432
G1 X93.567 Y164.958 E4.88435
G1 X92.883 Y164.767 E4.89853
G1 X92.309 Y164.588 E4.91052
G1 X91.754 Y164.392 E4.92227
G1 X88.019 Y162.983 E5.00193
G1 X87.346 Y162.718 E5.01637
G1 X86.715 Y162.445 E5.03009
G1 X86.054 Y162.129 E5.04471
G1 X82.691 Y160.445 E5.11977
G1 X82.051 Y160.114 E5.13414
G1 X81.498 Y159.805 E5.14679
G1 X81.018 Y159.514 E5.15799
G1 X77.747 Y157.432 E5.23537
G1 X77.02 Y156.954 E5.25273
G1 X76.457 Y156.556 E5.26649
G1 X75.887 Y156.122 E5.28078
G1 X73.034 Y153.859 E5.35346
G1 X72.367 Y153.314 E5.37064
G1 X71.496 Y152.514 E5.39425
G1 X70.199 Y151.169 E5.43153
G1 X68.352 Y149.328 E5.48357
G1 X67.495 Y148.506 E5.50727
G1 X66.618 Y147.553 E5.53312
G1 X66.129 Y146.953 E5.54856
G1 X63.868 Y144.094 E5.6213
G1 X63.42 Y143.509 E5.63601
G1 X63.091 Y143.053 E5.64723
G1 X62.771 Y142.573 E5.65874
G1 X60.611 Y139.175 E5.73909
G1 X60.219 Y138.535 E5.75407
G1 X59.945 Y138.061 E5.765
G1 X59.673 Y137.546 E5.77662
G1 X57.866 Y133.926 E5.85736
G1 X57.559 Y133.288 E5.87149
G1 X57.325 Y132.766 E5.88291
G1 X57.088 Y132.18 E5.89552
G1 X55.683 Y128.441 E5.97523
G1 X55.448 Y127.789 E5.98906
G1 X55.265 Y127.23 E6.0008
G1 X55.097 Y126.646 E6.01293
G1 X54.113 Y122.913 E6.08997
G1 X53.908 Y122.088 E6.10693
G1 X53.778 Y121.486 E6.11922
G1 X53.675 Y120.905 E6.131
G1 X53.059 Y116.942 E6.21103
G1 X52.961 Y116.237 E6.22524
G1 X52.889 Y115.556 E6.2389
G1 X52.839 Y114.863 E6.25277
G1 X52.654 Y111.225 E6.32546
G1 X52.622 Y110.336 E6.34321
G1 X52.62 Y109.627 E6.35736
G1 X52.644 Y108.919 E6.3715
G1 X52.843 Y105.17 E6.44642
G1 X52.888 Y104.467 E6.46048
G1 X52.947 Y103.857 E6.47271
G1 X53.03 Y103.231 E6.48531
G1 X53.618 Y99.464 E6.5614
G1 X53.77 Y98.568 E6.57953
G1 X53.889 Y97.983 E6.59145
G1 X54.019 Y97.444 E6.60251
G1 X55.003 Y93.71 E6.67957
G1 X55.237 Y92.87 E6.69697
G1 X55.451 Y92.198 E6.71105
G1 X55.69 Y91.531 E6.72518
G1 X57.02 Y88.011 E6.80028
G1 X57.288 Y87.332 E6.81484
G1 X57.56 Y86.704 E6.8285
G1 X57.871 Y86.055 E6.84286
G1 X59.493 Y82.815 E6.91517
G1 X59.885 Y82.056 E6.93222
G1 X60.179 Y81.524 E6.94435
G1 X60.486 Y81.018 E6.95616
G1 X62.65 Y77.62 E7.03655
G1 X63.038 Y77.03 E7.05065
G1 X63.455 Y76.443 E7.06501
G1 X63.878 Y75.888 E7.07894
G1 X66.218 Y72.939 E7.15407
G1 X66.685 Y72.368 E7.16879
G1 X67.494 Y71.485 E7.19269
G0 F6000 X67.716 Y71.716
G1 F1200 X69.063 Y70.42 E7.22999
G1 X70.917 Y68.56 E7.2824
G1 X71.715 Y67.727 E7.30542
G1 X72.642 Y66.871 E7.3306
G1 X73.121 Y66.48 E7.34294
G1 X76.098 Y64.125 E7.41869
G1 X76.676 Y63.683 E7.43321
G1 X77.143 Y63.345 E7.44471
G1 X77.599 Y63.041 E7.45565
G1 X80.992 Y60.884 E7.53589
G1 X81.625 Y60.496 E7.5507
G1 X82.089 Y60.228 E7.56139
G1 X82.597 Y59.959 E7.57287
G1 X86.213 Y58.154 E7.65352
G1 X86.843 Y57.851 E7.66747
G1 X87.354 Y57.622 E7.67864
G1 X87.933 Y57.388 E7.69111
G1 X91.684 Y55.978 E7.77108
G1 X92.351 Y55.739 E7.78521
G1 X92.888 Y55.563 E7.79649
G1 X93.434 Y55.407 E7.80782
G1 X97.315 Y54.386 E7.88791
G1 X97.992 Y54.219 E7.90182
G1 X98.518 Y54.104 E7.91257
G1 X99.144 Y53.991 E7.92526
G1 X102.95 Y53.399 E8.00213
G1 X103.794 Y53.28 E8.01914
G1 X104.467 Y53.208 E8.03265
G1 X105.153 Y53.159 E8.04637
G1 X108.787 Y52.974 E8.11898
G1 X109.668 Y52.942 E8.13658
G1 X110.364 Y52.94 E8.15047
G1 X111.065 Y52.964 E8.16446
G1 X114.676 Y53.154 E8.23663
G1 X115.52 Y53.209 E8.2535
G1 X116.15 Y53.271 E8.26614
G1 X116.852 Y53.365 E8.28027
G1 X120.487 Y53.934 E8.3537
G1 X121.369 Y54.084 E8.37155
G1 X121.962 Y54.205 E8.38363
G1 X122.473 Y54.328 E8.39412
G1 X126.347 Y55.35 E8.47407
G1 X127.022 Y55.538 E8.48805
G1 X127.585 Y55.714 E8.49983
G1 X128.133 Y55.907 E8.51142
G1 X131.864 Y57.315 E8.591
G1 X132.527 Y57.576 E8.60522
G1 X133.147 Y57.844 E8.6187
G1 X133.803 Y58.157 E8.6332
G1 X137.039 Y59.777 E8.70542
G1 X137.79 Y60.165 E8.72229
G1 X138.328 Y60.463 E8.73457
G1 X138.81 Y60.756 E8.74582
G1 X142.077 Y62.835 E8.8231
G1 X142.795 Y63.307 E8.84025
G1 X143.349 Y63.699 E8.85379
G1 X143.913 Y64.129 E8.86794
G1 X146.858 Y66.465 E8.94296
G1 X147.409 Y66.915 E8.95716
G1 X148.27 Y67.702 E8.98043
G1 X149.575 Y69.058 E9.01799
G1 X151.441 Y70.917 E9.07055
G1 X152.275 Y71.717 E9.09362
G1 X153.134 Y72.647 E9.11888
G1 X153.523 Y73.124 E9.13116
G1 X155.878 Y76.101 E9.20691
G1 X156.32 Y76.678 E9.22142
G1 X156.649 Y77.134 E9.23264
G1 X156.959 Y77.599 E9.24379
G1 X159.116 Y80.992 E9.32403
G1 X159.504 Y81.625 E9.33884
G1 X159.772 Y82.089 E9.34954
G1 X160.041 Y82.597 E9.36101
G1 X161.836 Y86.192 E9.4412
G1 X162.135 Y86.81 E9.4549
G1 X162.413 Y87.44 E9.46864
G1 X162.66 Y88.057 E9.4819
G1 X163.966 Y91.532 E9.55599
G1 X164.258 Y92.342 E9.57317
G1 X164.436 Y92.887 E9.58461
G1 X164.594 Y93.435 E9.59599
G1 X165.576 Y97.164 E9.67294
G1 X165.779 Y97.98 E9.68973
G1 X165.903 Y98.55 E9.70137
G1 X166.009 Y99.144 E9.71341
G1 X166.623 Y103.095 E9.7932
G1 X166.72 Y103.788 E9.80716
G1 X166.793 Y104.47 E9.82085
G1 X166.841 Y105.153 E9.83452
G1 X167.026 Y108.787 E9.90713
G1 X167.058 Y109.656 E9.92448
G1 X167.06 Y110.352 E9.93837
G1 X167.036 Y111.064 E9.95259
G1 X166.846 Y114.675 E10.02475
G1 X166.791 Y115.519 E10.04163
G1 X166.729 Y116.154 E10.05436
G1 X166.635 Y116.85 E10.06838
G1 X166.066 Y120.486 E10.14182
G1 X165.923 Y121.331 E10.15892
G1 X165.803 Y121.925 E10.17102
G1 X165.672 Y122.473 E10.18226
G1 X164.65 Y126.347 E10.26222
G1 X164.462 Y127.022 E10.2762
G1 X164.286 Y127.585 E10.28797
G1 X164.093 Y128.133 E10.29957
G1 X162.685 Y131.864 E10.37915
G1 X162.424 Y132.527 E10.39337
G1 X162.156 Y133.147 E10.40684
G1 X161.843 Y133.803 E10.42135
G1 X160.223 Y137.039 E10.49357
G1 X159.835 Y137.79 E10.51044
G1 X159.537 Y138.328 E10.52271
G1 X159.244 Y138.81 E10.53397
G1 X157.165 Y142.077 E10.61125
G1 X156.693 Y142.795 E10.62839
G1 X156.301 Y143.349 E10.64194
G1 X155.871 Y143.913 E10.65609
G1 X153.535 Y146.858 E10.7311
G1 X153.085 Y147.409 E10.7453
G1 X152.298 Y148.27 E10.76858
G1 X150.942 Y149.575 E10.80614
G1 X149.101 Y151.422 E10.85818
G1 X148.289 Y152.269 E10.88159
G1 X147.351 Y153.134 E10.90706
G1 X146.754 Y153.62 E10.92242
G1 X143.899 Y155.878 E10.99506
G1 X143.32 Y156.321 E11.00961
G1 X142.75 Y156.726 E11.02356
G1 X142.212 Y157.081 E11.03642
G1 X139.011 Y159.114 E11.1121
G1 X138.386 Y159.498 E11.12674
G1 X137.925 Y159.765 E11.13737
G1 X137.404 Y160.041 E11.14913
G1 X133.781 Y161.849 E11.22994
G1 X133.151 Y162.152 E11.24389
G1 X132.646 Y162.378 E11.25493
G1 X132.067 Y162.612 E11.26739
G1 X128.316 Y164.022 E11.34736
G1 X127.649 Y164.261 E11.3615
G1 X127.112 Y164.437 E11.37278
G1 X126.566 Y164.593 E11.38411
G1 X122.685 Y165.614 E11.46419
G1 X122.008 Y165.781 E11.47811
G1 X121.482 Y165.896 E11.48885
G1 X120.856 Y166.009 E11.50155
G1 X116.905 Y166.623 E11.58134
G1 X116.212 Y166.72 E11.59531
G1 X115.53 Y166.793 E11.60899
G1 X114.847 Y166.841 E11.62266
G1 X111.214 Y167.026 E11.69525
G1 X110.333 Y167.058 E11.71284
G1 X109.637 Y167.06 E11.72673
G1 X108.936 Y167.036 E11.74073
G1 X105.325 Y166.846 E11.81289
G1 X104.481 Y166.791 E11.82977
G1 X103.846 Y166.729 E11.8425
G1 X103.15 Y166.635 E11.85652
G1 X99.514 Y166.066 E11.92996
G1 X98.631 Y165.916 E11.94784
G1 X98.038 Y165.795 E11.95991
G1 X97.527 Y165.672 E11.9704
G1 X93.653 Y164.65 E12.05036
G1 X92.978 Y164.462 E12.06434
G1 X92.415 Y164.286 E12.07611
G1 X91.867 Y164.093 E12.08771
G1 X88.136 Y162.685 E12.16729
G1 X87.473 Y162.424 E12.18151
G1 X86.853 Y162.156 E12.19499
G1 X86.197 Y161.843 E12.20949
G1 X82.838 Y160.161 E12.28446
G1 X82.207 Y159.835 E12.29863
G1 X81.664 Y159.532 E12.31104
G1 X81.19 Y159.244 E12.32211
G1 X77.923 Y157.165 E12.39939
G1 X77.205 Y156.693 E12.41653
G1 X76.651 Y156.301 E12.43008
G1 X76.086 Y155.871 E12.44425
G1 X73.236 Y153.611 E12.51683
G1 X72.583 Y153.078 E12.53366
G1 X71.726 Y152.292 E12.55686
G1 X70.425 Y150.942 E12.59428
G1 X68.578 Y149.101 E12.64632
G1 X67.717 Y148.275 E12.67013
G1 X66.866 Y147.351 E12.6952
G1 X66.38 Y146.754 E12.71056
G1 X64.122 Y143.899 E12.7832
G1 X63.68 Y143.322 E12.7977
G1 X63.351 Y142.866 E12.80893
G1 X63.041 Y142.401 E12.82008
G1 X60.884 Y139.008 E12.90031
G1 X60.496 Y138.375 E12.91513
G1 X60.228 Y137.911 E12.92582
G1 X59.959 Y137.403 E12.93729
G1 X58.154 Y133.787 E13.01795
G1 X57.851 Y133.157 E13.0319
G1 X57.622 Y132.646 E13.04307
G1 X57.388 Y132.067 E13.05553
G1 X55.984 Y128.333 E13.13514
G1 X55.752 Y127.689 E13.1488
G1 X55.572 Y127.141 E13.16031
G1 X55.406 Y126.565 E13.17228
G1 X54.424 Y122.836 E13.24923
G1 X54.221 Y122.02 E13.26601
G1 X54.093 Y121.43 E13.27806
G1 X53.991 Y120.856 E13.28969
G1 X53.376 Y116.898 E13.36963
G1 X53.279 Y116.203 E13.38363
G1 X53.208 Y115.533 E13.39708
G1 X53.159 Y114.847 E13.4108
G1 X52.974 Y111.213 E13.48342
G1 X52.942 Y110.335 E13.50095
G1 X52.94 Y109.638 E13.51486
G1 X52.964 Y108.936 E13.52888
G1 X53.162 Y105.191 E13.60372
G1 X53.207 Y104.497 E13.61759
G1 X53.264 Y103.899 E13.62958
G1 X53.346 Y103.28 E13.64204
G1 X53.933 Y99.518 E13.71803
G1 X54.084 Y98.631 E13.73598
G1 X54.2 Y98.058 E13.74765
G1 X54.328 Y97.526 E13.75857
G1 X55.311 Y93.796 E13.83555
G1 X55.542 Y92.967 E13.85272
G1 X55.752 Y92.306 E13.86656
G1 X55.989 Y91.644 E13.88059
G1 X57.318 Y88.128 E13.9556
G1 X57.582 Y87.459 E13.96996
G1 X57.849 Y86.842 E13.98337
G1 X58.157 Y86.198 E13.99762
G1 X59.777 Y82.962 E14.06984
G1 X60.165 Y82.211 E14.0867
G1 X60.453 Y81.69 E14.09858
G1 X60.756 Y81.19 E14.11025
G1 X62.917 Y77.796 E14.19055
G1 X63.299 Y77.215 E14.20442
G1 X63.709 Y76.637 E14.21856
G1 X64.129 Y76.087 E14.23237
G1 X66.466 Y73.141 E14.30742
G1 X66.921 Y72.584 E14.32177
G1 X67.716 Y71.716 E14.34526
G0 F6000 X67.938 Y71.947
G1 F1200 X69.285 Y70.651 E14.38256
G1 X71.144 Y68.786 E14.43511
G1 X71.932 Y67.962 E14.45786
G1 X72.844 Y67.119 E14.48265
G1 X73.319 Y66.731 E14.49489
G1 X76.293 Y64.379 E14.57055
G1 X76.863 Y63.942 E14.58489
G1 X77.321 Y63.611 E14.59616
G1 X77.771 Y63.311 E14.60696
G1 X81.16 Y61.157 E14.68709
G1 X81.785 Y60.773 E14.70173
G1 X82.239 Y60.511 E14.71219
G1 X82.74 Y60.245 E14.72351
G1 X86.352 Y58.442 E14.80407
G1 X86.974 Y58.143 E14.81785
G1 X87.474 Y57.919 E14.82878
G1 X88.046 Y57.688 E14.84109
G1 X91.792 Y56.279 E14.92096
G1 X92.451 Y56.043 E14.93493
G1 X92.976 Y55.871 E14.94595
G1 X93.515 Y55.716 E14.95715
G1 X97.392 Y54.697 E15.03714
G1 X98.061 Y54.532 E15.05089
G1 X98.575 Y54.419 E15.0614
G1 X99.193 Y54.307 E15.07393
G1 X102.995 Y53.716 E15.15071
G1 X103.828 Y53.598 E15.1675
G1 X104.49 Y53.527 E15.18079
G1 X105.169 Y53.479 E15.19437
G1 X108.799 Y53.294 E15.26691
G1 X109.669 Y53.262 E15.28428
G1 X110.353 Y53.26 E15.29793
